public/img/restore.svg

<svg width="100" height="100" viewBox="0 0 100 100" fill="none" xmlns="http://www.w3.org/2000/svg">
<path d="M26.43 77.72L32.43 71.62C37.4474 76.5899 44.0382 79.6585 51.0712 80.2992C58.1042 80.94 65.141 79.113 70.9739 75.1317C76.8069 71.1504 81.0723 65.2631 83.0383 58.4801C85.0042 51.6972 84.5481 44.4414 81.7482 37.958C78.9483 31.4746 73.9791 26.1679 67.6935 22.9484C61.4079 19.729 54.1977 18.7976 47.3003 20.314C40.4029 21.8305 34.2483 25.7003 29.8928 31.2594C25.5372 36.8184 23.2522 43.7201 23.43 50.78C24.43 49.78 25.32 48.91 26.2 48.01C27.08 47.11 27.97 46.15 28.79 45.28L34.84 51.36L19.18 67.08L3.35999 51.26L9.26999 45.35L14.46 50.61L14.71 50.56C14.8 39.51 18.55 29.96 26.44 22.23C30.1668 18.4873 34.6286 15.5571 39.544 13.6244C44.4595 11.6916 49.722 10.798 55 11C72.07 11.33 87.54 23.85 91.58 40.6C93.634 48.8411 92.9374 57.5278 89.5962 65.3363C86.255 73.1447 80.4526 79.6466 73.0731 83.8512C65.6936 88.0557 57.1418 89.7323 48.721 88.6254C40.3002 87.5185 32.4722 83.6888 26.43 77.72V77.72Z" fill="white"/>
<path d="M49.46 32.71H55.9V33.8C55.9 39.21 55.9 44.62 55.9 50.04C55.8615 50.3526 55.9434 50.6682 56.1292 50.9227C56.3149 51.1771 56.5905 51.3514 56.9 51.41C62.17 53.41 67.42 55.47 72.67 57.51C72.86 57.58 73.04 57.67 73.35 57.81L71.14 63L60.8 59C57.25 57.61 53.69 56.22 50.13 54.85C49.64 54.66 49.37 54.46 49.38 53.85C49.38 46.98 49.38 40.12 49.38 33.25C49.4 33.06 49.43 32.93 49.46 32.71Z" fill="white"/>
</svg>

<svg id="Слой_1" data-name="Слой 1" xmlns="http://www.w3.org/2000/svg" viewBox="0 0 100 100"><title>icons</title><path d="M26.43,77.72l6-6.1a30.41,30.41,0,1,0-9-20.84c1-1,1.89-1.87,2.77-2.77s1.77-1.86,2.59-2.73l6.05,6.08L19.18,67.08,3.36,51.26l5.91-5.91,5.19,5.26.25-.05c.09-11.05,3.84-20.6,11.73-28.33A38.24,38.24,0,0,1,55,11c17.07.33,32.54,12.85,36.58,29.6A38.94,38.94,0,0,1,26.43,77.72Z"/><path d="M49.46,32.71h6.44V33.8c0,5.41,0,10.82,0,16.24a1.24,1.24,0,0,0,1,1.37c5.27,2,10.52,4.06,15.77,6.1.19.07.37.16.68.3L71.14,63l-10.34-4c-3.55-1.39-7.11-2.78-10.67-4.15-.49-.19-.76-.39-.75-1,0-6.87,0-13.73,0-20.6C49.4,33.06,49.43,32.93,49.46,32.71Z"/></svg>
